!!!COM: Palestrina, Giovanni Perluigi da
!!!OPR: Ave regina coelorum
!!!OTL: Kyrie
**kern	**kern	**kern	**kern
*Ibass	*Itenor	*Icalto	*Icant
!Bassus	!Tenor	!Altus	!Cantus
*clefF4	*clefGv2	*clefG2	*clefG2
*k[]	*k[]	*k[]	*k[]
*C:ion	*C:ion	*C:ion	*C:ion
*M4/2	*M4/2	*M4/2	*M4/2
=1	=1	=1	=1
1r	1.g	0r	0r
[1c	.	.	.
.	2f	.	.
=2	=2	=2	=2
2c]	1e	0r	0r
2B	.	.	.
1A	1f	.	.
=3	=3	=3	=3
1B	2d	0r	0r
.	2d	.	.
1G	4e	.	.
.	4f	.	.
.	4g	.	.
.	4e	.	.
=4	=4	=4	=4
2A	4f	1r	0r
.	4e	.	.
1c	4e	.	.
.	8d	.	.
.	8c	.	.
.	1d	[1g	.
2B	.	.	.
=5	=5	=5	=5
0c	2e	2g]	1.cc
.	2a	2f	.
.	2g	1e	.
.	2g	.	2b
=6	=6	=6	=6
1F	4f	1f	1a
.	4e	.	.
.	4d	.	.
.	4c	.	.
1G	4B	2d	1b
.	4A	.	.
.	2B	2d	.
=7	=7	=7	=7
1E	2c	4e	1g
.	.	4f	.
.	2B	4g	.
.	.	4e	.
1A	1c	4f	2a
.	.	4e	.
.	.	4e	[2cc
.	.	8d	.
.	.	8c	.
=8	=8	=8	=8
1G	2r	1d	2cc]
.	2.g	.	2b
2.c	.	[1e	1cc
.	4f	.	.
.	4e	.	.
4B	4d	.	.
=9	=9	=9	=9
4A	2.c	1e]	1r
4G	.	.	.
2A	.	.	.
.	4B	.	.
2F	2A	1r	1cc
2E	[2c	.	.
=10	=10	=10	=10
1D	4c]	1f	1dd
.	4B	.	.
.	4B	.	.
.	4A	.	.
1C	1c	1g	[1ee
=11	=11	=11	=11
0r	0r	2.a	2ee]
.	.	.	2ee
.	.	4g	.
.	.	2f	2dd
.	.	2e	2ee
=12	=12	=12	=12
1r	0r	4d	1.ff
.	.	4e	.
.	.	4f	.
.	.	4g	.
1F	.	4a	.
.	.	4b	.
.	.	[2cc	2ee
=13	=13	=13	=13
1G	0r	2cc]	1dd
.	.	2b	.
2.A	.	[1cc	2cc
.	.	.	[2a
4G	.	.	.
=14	=14	=14	=14
2F	1c	1cc]	2a]
2E	.	.	2g
1D	1d	2r	4f
.	.	.	4g
.	.	4f	4a
.	.	4g	4b
=15	=15	=15	=15
0A	1.e	4a	2cc
.	.	4b	.
.	.	2.cc	2a
.	.	.	1cc
.	.	4b	.
.	2e	[2a	.
=16	=16	=16	=16
0r	2d	2a]	1b
.	2e	2g#	.
.	[1f	[1a	2a
.	.	.	2cc
=17	=17	=17	=17
1F	2f]	1a]	2dd
.	2e	.	1cc
1G	1d	1g	.
.	.	.	2b
=18	=18	=18	=18
1.A	0c	2r	2cc
.	.	2c	2.ee
.	.	2e	.
.	.	.	4dd
2A	.	2f	2cc
=19	=19	=19	=19
2G	2r	2g	2b
2A	2c	1f	1a
1B-	1d	.	.
.	.	4e	2g
.	.	4d	.
=20	=20	=20	=20
1A	1.e	2c	4a
.	.	.	4b
.	.	2a	4cc
.	.	.	4dd
1c	.	2g	2.ee
.	2e	2a	.
.	.	.	4ff
=21	=21	=21	=21
1G	2d	1b-	1gg
.	2e	.	.
1F	[1f	1a	2cc
.	.	.	[2dd
=22	=22	=22	=22
0G	2f]	0g	2dd]
.	2e	.	1cc
.	1d	.	.
.	.	.	2b
=23	=23	=23	=23
0C	0c	0g	0cc
=24	=24	=24	=24
0r	0r	2.c	0r
.	.	4d	.
.	.	2e	.
.	.	2f	.
=25	=25	=25	=25
0r	2.c	2.e	0cc
.	4d	4f	.
.	2e	2g	.
.	2f	[2a	.
=26	=26	=26	=26
0r	2d	2a]	1b
.	2e	1g	.
.	2c	.	1a
.	2d	2f#	.
=27	=27	=27	=27
1r	2G	2g	2b
.	2.c	2e	2g
2.F	.	2f	2.a
.	4A	.	.
.	2f	[2a	.
4G	.	.	4b
=28	=28	=28	=28
2A	2e	2a]	2cc
2B-	2d	2f	1dd
2G	2e	2g	.
2A	2c	2e	[2cc
=29	=29	=29	=29
2F	1d	2a	2cc]
2G	.	2g	2b
2.C	1r	2.e	[1cc
4D	.	4f	.
=30	=30	=30	=30
2E	1c	2g	1cc]
2F	.	1a	.
2D	1B	.	1r
2E	.	[2g	.
=31	=31	=31	=31
2C	1A	2g]	0r
2D	.	2f#	.
2G	2B	1g	.
2E	2G	.	.
=32	=32	=32	=32
1F	2.A	1c	2.cc
.	4B	.	4dd
2E	2c	2r	2ee
2D	[2d	2A	2ff
=33	=33	=33	=33
2G	2d]	2B	2dd
2E	1c	2G	2ee
2F	.	2A	2cc
2D	2B	[2f	2dd
=34	=34	=34	=34
2C	1c	4f]	0g
.	.	4e	.
1c	.	2e	.
.	2G	1d	.
2B	[2g	.	.
=35	=35	=35	=35
2.c	4g]	1e	0r
.	4f	.	.
.	4e	.	.
4B	4d	.	.
4A	2c	2r	.
4G	.	.	.
4F	[2d	[2f	.
4E	.	.	.
=36	=36	=36	=36
2D	2d]	2f]	2r
2E	4c	2g	1cc
.	4B	.	.
1F	2.A	1a	.
.	.	.	2dd
.	4B	.	.
=37	=37	=37	=37
1C	1c	2g	1ee
.	.	2a	.
1G	1r	[1b-	2dd
.	.	.	2ee
=38	=38	=38	=38
2D	1r	2b-]	1.ff
2F	.	2a	.
1C	2r	2g	.
.	[2c	[2cc	4ee
.	.	.	4dd
=39	=39	=39	=39
0r	2c]	4cc]	2ee
.	.	4b	.
.	2d	1a	4dd
.	.	.	4cc
.	1e	.	2.b
.	.	2g	.
.	.	.	4cc
=40	=40	=40	=40
0r	2d	2f	2dd
.	2e	2e	1cc
.	[1f	1d	.
.	.	.	2b
=41	=41	=41	=41
1.F	2f]	1c	2a
.	2e	.	1cc
.	1d	1r	.
2G	.	.	2b
=42	=42	=42	=42
1A	4c	1r	2cc
.	4d	.	.
.	4e	.	2a
.	4f	.	.
2G	2g	2r	2b
2A	4f	[2f	2cc
.	4e	.	.
=43	=43	=43	=43
1B-	1d	2f]	1dd
.	.	2g	.
2A	1f	1a	2.cc
2F	.	.	.
.	.	.	4dd
=44	=44	=44	=44
1c	1e	2g	1ee
.	.	2a	.
1G	1g	1b-	2.dd
.	.	.	4ee
=45	=45	=45	=45
4D	2.f	0a	1ff
4E	.	.	.
4F	.	.	.
4G	8e	.	.
.	8d	.	.
4A	2c	.	[1ee
4B	.	.	.
[2c	2A	.	.
=46	=46	=46	=46
2c]	2c	[0g	2ee]
2B	2d	.	2dd
1c	1e	.	1cc
=47	=47	=47	=47
0G	0d	0g]	0b
=48	=48	=48	=48
0r	0r	1c	0r
.	.	2d	.
.	.	2e	.
=49	=49	=49	=49
0r	1r	1f	0r
.	1c	2e	.
.	.	2g	.
=50	=50	=50	=50
0r	2d	2f	2r
.	2e	2e	2g
.	1f	1d	2a
.	.	.	2b
=51	=51	=51	=51
0r	2e	2.c	1cc
.	1g	.	.
.	.	4d	.
.	.	2e	2b
.	2f	[2a	2dd
=52	=52	=52	=52
0r	2.e	4a]	2cc
.	.	4g	.
.	.	1g	2b
.	4d	.	.
.	2c	.	1a
.	2d	2f	.
=53	=53	=53	=53
1G	2B	2.d	1g
.	2d	.	.
.	.	4e	.
2A	2c	4f	1r
.	.	4e	.
2B	2B	[2g	.
=54	=54	=54	=54
1c	1A	2g]	1r
.	.	2f#	.
2B	1G	1g	2r
2d	.	.	2g
=55	=55	=55	=55
2c	1r	2r	2a
2B	.	2d	2b
1A	2r	2e	1cc
.	2c	2f	.
=56	=56	=56	=56
1G	2d	1g	1b
.	2e	.	.
4D	1f	2a	1dd
4E	.	.	.
4F	.	4A	.
4G	.	4B	.
=57	=57	=57	=57
2A	2e	4c	2cc
.	.	4d	.
2E	2g	2e	2b
1F	2f	2A	1a
.	2e	[2c	.
=58	=58	=58	=58
1G	1d	2c]	1g
.	.	2B	.
2.A	2c	2.c	2r
.	2e	.	2cc
4G	.	4B	.
=59	=59	=59	=59
2F	2d	2A	2dd
2E	1c	2G	2ee
1D	.	1d	1ff
.	2B	.	.
=60	=60	=60	=60
1C	2c	1g	2ee
.	2c	.	2gg
1r	2d	2r	2ff
.	2e	2g	[2ee
=61	=61	=61	=61
0r	1f	2.a	2ee]
.	.	.	2dd
.	.	4b	.
.	2e	2cc	2ee
.	2g	2b	[2dd
=62	=62	=62	=62
2r	2f	2a	4dd]
.	.	.	4cc
2E	2e	2g	1cc
2F	1d	2a	.
2G	.	4g	2b
.	.	4f	.
=63	=63	=63	=63
1A	4c	2e	2cc
.	4d	.	.
.	4e	2c	2a
.	4f	.	.
2G	1g	2d	2b
2G	.	2e	[2ee
=64	=64	=64	=64
2A	0r	1f	2ee]
2B	.	.	2dd
1c	.	2e	1ee
.	.	[2g	.
=65	=65	=65	=65
2B	0r	2g]	1r
2d	.	1f	.
[1c	.	.	1g
.	.	4e	.
.	.	4d	.
=66	=66	=66	=66
2c]	1r	4e	2a
.	.	4f#	.
2B	.	1g	2b
1A	1c	.	1cc
.	.	2f#	.
=67	=67	=67	=67
1G	2d	1g	1b
.	2e	.	.
1D	1f	1a	1dd
=68	=68	=68	=68
1E	2e	1g	2cc
.	2g	.	2b
1F	2f	1c	2a
.	2e	.	[2cc
=69	=69	=69	=69
0G	0d	0g	2cc]
.	.	.	4b
.	.	.	4a
.	.	.	1b
=70	=70	=70	=70
0C	0c	0g	0cc
==	==	==	==
*-	*-	*-	*-
!!!CDT: 1525/^1526/-1594/2/2
!!!OCY: Italia
!!!AGN: Mass (Paraphrase)
!!!AST: renaissance, vocal
!!!ASW: Antiphon
!!!PWK: Masses, Book 9
!!!RNB: Cadence finals: G
!!!YOR: Le Opere Complete, v. 25, p. 1
!!!YOO: Rome, Italy: Fratelli Scalera
!!!END: 1992//
!!!EED: John Miller
!!!YEC: Copyright 2000, John Miller
!!!YEN: United States of America
!!!YEM: Rights to all derivative electronic formats reserved.
!!!YEM: Refer to licensing agreement for further details.
!!!YEM: This file must be accompanied by the licensing agreement.
!!!YEM: A copy of the licensing agreement may be found at http://www.music-cog.ohio-state.edu/HumdrumDatabases/Palestrina/license.txt
!!!EMD: converted to Humdrum by Bret Aarden
